X:1
%%MIDI gchord c
T:Agent 000
C:Bruno Scherrer
M:5/4
L:1/8
Q:1/4=180
K:Fmaj
"^A""Dm9"BA-A8 | ^G.A z8 | BA-A8 | d.A z8 |
"EbΔ"BA-A8 | F._E z8 | "Dm9"D2-D8 | z2 z8 :|
"^B""Gm7"BA-A8 | "G#∅"^G.A z8 | "A7b9"BA-A8 | "BbΔ"d.A z8 |
"FΔ"BA-A8 | "EbΔ"F._E z8 | "Dm9"D2-D8 | z2 z8 ||
%%begintext
Intro sur A
Thème (AAB)
Solos sur la même structure (AAB)
Thème final où l'on répète B 2 fois (AABB)
%%endtext
%%newpage

%X:2
%%%MIDI gchord c
%T:Balade
%C:Bruno Scherrer
%M:4/4
%L:1/8
%Q:1/4=120
%K:G
%"^A""Em11"B4de3 | {f}g3f3e2 | "GΔ"d3e3B2- | B6d2 |
%"CΔ9"e3e3e2 | e6 c2 | "Em11"B8 |1 z8 :|2 z6e2 |]
%"^B""Em11"b3b3b2 | a4g2a2 | "Am7"a3e3c2- | c6e2 |
%"Am7/F#"g3g3g2 | f3d3e2- | "Em11"e8 | z4de3 |
%"D7"g3g3g2 | "CΔ"f3e3d2 | "Am9"e3B3A2- | "Am7"A3GAG3 |
%"Esus"E8 | "Em7"z8 | "A7"^c8 | "Am7"c8 |
%"Esus"B8 | "Em7"z8 | "A7"^c8 | "Am7"c8 ||
